X:1
T:Svingedans
T:(FMK M 89a bild 11)
T:efter Nils Persson
R:Svingedans
O:Skönadal, Vollsjö, Skåne
B:Folkmusikkommissionen
Z:ABC-transkribering av Åke Persson
M:3/4
L:1/8
Q:1/4=108
K:G
|: de d2 B2 | gf g2 e2 | Ac e2 (FA) | GB d2 B2 | de d2 B2 | gf g2 e2 | d/f/a c'2 f2 | g2 g2 z2 :|
|: b2 a2 g2 | ag f2 e2 | d2 c2 F2 | GB d2 B2 | b2 a2 g2 | ag f2 e2 | d/f/a c'2 f2 | g2 g2 z2 :|

